assets/images/system/icon/calendar-icon.svg

<svg width="20" height="20" viewBox="0 0 20 20" fill="none" xmlns="http://www.w3.org/2000/svg">
<path d="M20 1.66667V20H0V1.66667H2.5V2.5C2.5 3.41917 3.2475 4.16667 4.16667 4.16667C5.08583 4.16667 5.83333 3.41917 5.83333 2.5V1.66667H14.1667V2.5C14.1667 3.41917 14.9142 4.16667 15.8333 4.16667C16.7525 4.16667 17.5 3.41917 17.5 2.5V1.66667H20ZM18.3333 6.66667H1.66667V18.3333H18.3333V6.66667ZM16.6667 0.833333C16.6667 0.373333 16.2942 0 15.8333 0C15.3725 0 15 0.373333 15 0.833333V2.5C15 2.96 15.3725 3.33333 15.8333 3.33333C16.2942 3.33333 16.6667 2.96 16.6667 2.5V0.833333ZM5 2.5C5 2.96 4.6275 3.33333 4.16667 3.33333C3.70583 3.33333 3.33333 2.96 3.33333 2.5V0.833333C3.33333 0.373333 3.70583 0 4.16667 0C4.6275 0 5 0.373333 5 0.833333V2.5ZM5.83333 12.2742L6.54583 11.615C7.37917 12.0183 7.90833 12.325 8.84583 12.9933C10.6067 10.9942 11.7717 9.98 13.9342 8.63417L14.1667 9.1675C12.3825 10.725 11.0758 12.4583 9.19417 15.8333C8.03333 14.4667 7.25917 13.595 5.83333 12.2742Z" fill="#787878"/>
</svg>

<svg xmlns="http://www.w3.org/2000/svg" width="20" height="20" fill="none" xmlns:v="https://vecta.io/nano"><path d="M20 1.667V20H0V1.667h2.5V2.5a1.67 1.67 0 0 0 1.667 1.667A1.67 1.67 0 0 0 5.833 2.5v-.833h8.333V2.5a1.67 1.67 0 0 0 1.667 1.667A1.67 1.67 0 0 0 17.5 2.5v-.833H20zm-1.667 5H1.667v11.667h16.667V6.667zM16.667.833c0-.46-.372-.833-.833-.833S15 .373 15 .833V2.5c0 .46.373.833.833.833s.833-.373.833-.833V.833zM5 2.5c0 .46-.372.833-.833.833s-.833-.373-.833-.833V.833c0-.46.373-.833.833-.833S5 .373 5 .833V2.5zm.833 9.774l.712-.659c.833.403 1.363.71 2.3 1.378 1.761-1.999 2.926-3.013 5.088-4.359l.232.533c-1.784 1.557-3.091 3.291-4.973 6.666-1.161-1.367-1.935-2.238-3.361-3.559z" fill="#787878"/></svg>
